X:426
T:Biddy the Bold Wife
T:Biddy the Bold
R:jig
Z:hn-jig-426
M:6/8
L:1/8
K:A
EAc e2f | ecA a2f | ecA EAc | dcd BAF |
EAc e2f | ecA a2f | ecA EAc |1 BAG A2F :|2 BAG Ace ||
|: f3 fec | eaa a2f | ecf ecf | eAB cde |
f3 fec | eaa a2f | ecA EAc |1 BAG Ace :|2 BAG A2F ||

